!!!COM: Anonim
!!!CDT: [?]
!!!OTL@@LAT: Uniuersi populi
!!!TXO: Latin
!!!ODT: 
!!!GTL: Hymnbook E
!!!ARL: Opactwo św. Wojciecha, Staniątki 
!!!voices:	3
**kern	**kern	**text	**text	**kern	**text	**text
*staff3	*staff2	*staff2	*staff2	*staff1	*staff1	*staff1
*I"Basso	*I"Canto	*	*	*I"Tenore	*	*
=1-	=1-	=1-	=1-	=1-	=1-	=1-
*clefF4	*clefG2	*	*	*clefGv2	*	*
*k[]	*k[]	*	*	*k[]	*	*
*M3/2	*M3/2	*	*	*M3/2	*	*
1AA	1a	U-	De	1A	U-	De
2AA	2a	-ni-	cae-	2A	-ni-	cae-
=2	=2	=2	=2	=2	=2	=2
1E	1g#	-ver-	-lo	1B	-ver-	-lo
2C	2e	-si	pro	2B	-si	pro
=3	=3	=3	=3	=3	=3	=3
1C	1g	po-	ho-	1c	po-	ho-
2F	2f	-pu-	-mi-	2A	-pu-	-mi-
=4	=4	=4	=4	=4	=4	=4
1.C	1.e	-li	-ne	1.G	-li	-ne
=5	=5	=5	=5	=5	=5	=5
1C	1e	om-	des-	1G	om-	des-
2C	2g	-nes	-cen-	2c	-nes	-cen-
=6	=6	=6	=6	=6	=6	=6
!!linebreak:original
1D	1a	iam	-dit	1d	iam	-dit
2E	2g#	gau-	Me-	2B	gau-	Me-
=7	=7	=7	=7	=7	=7	=7
1.AA	1.a	-de-	-si-	1.A	-de-	-si-
=8	=8	=8	=8	=8	=8	=8
1.AA	1.a	-te	-as	1.A	-te	-as
=9||	=9||	=9||	=9||	=9||	=9||	=9||
1A	1a	Quem	.	1c	Quem	.
2G	2b	pre-	.	2d	pre-	.
=10	=10	=10	=10	=10	=10	=10
1G	1b	-di-	.	1d	-di-	.
2G	2b	-xit	.	2d	-xit	.
=11	=11	=11	=11	=11	=11	=11
1C	1g	Ga-	.	1c	Ga-	.
2C	2g	-bri-	.	2c	-bri-	.
=12	=12	=12	=12	=12	=12	=12
!!linebreak:original
1.C	1.g	-el	.	1.c	-el	.
=13	=13	=13	=13	=13	=13	=13
1C	1g	va-	.	1c	va-	.
2F	2a	-tes	.	2c	-tes	.
=14	=14	=14	=14	=14	=14	=14
1D	1a	I-	.	2.d	I-	.
.	.	.	.	4c	.	.
2E	2g#	-sa-	.	2B	-sa-	.
=15	=15	=15	=15	=15	=15	=15
1.AA	1.a	-i-	.	1.A	-i-	.
=16	=16	=16	=16	=16	=16	=16
1.AA	1.a	-as.	.	1.A	-as.	.
==	==	==	==	==	==	==
*-	*-	*-	*-	*-	*-	*-
!!title: @{OTL}, @{GTL}: @{pag}, ed. @{ENC}
!!!pag: pp. 36v-37r
!!!GTL: Hymnbook E
!!!EFL: 
!!!YEM: Creative Commons CC/BY/NC/SA 4.0
!!!ENC: Marcin Konik
!!!END: 2015-05-04
!!!EED: Marcin Konik
!!!EEV: 
!!!ONB: Encoded in vim by Marcin Konik
!!!CharacterEncoding: utf-8
!!!RDF**kern: l=long note in original notation
!!!RDF**kern: i=editorial accidental
!!muse2ps: z14jc180F
